X: 011
T: Country Cottage
B: 204 Favourite Country Dances
N: Published by Straight & Skillern, London ca.1775
F: http://imslp.org/wiki/204_Favourite_Country_Dances_(Various) p.6 #11
Z: 2014 John Chambers <jc:trillian.mit.edu>
M: 6/8
L: 1/8
K: F
%  - - - - - - - - - - - - - - - - - - - - - - - - -
c |\
f2f fcA | f2f fcA | G2d cdB | {B}A2A A2c |\
f2f fcA | f2f fcA | G2c cd=B | c2c c2 :|
|: c |\
g2g gec | g2g g2a | b2a bag | a2a a2c |\
f2f fcA | f2f fdB | A2f G2e | f2f f2 :|
%  - - - - - - - - - - - - - - - - - - - - - - - - -
%%begintext align
%% The 1st Cu. gallop down 1 Cu. up again and
%% case off do the same with the 3d Cu. lead
%% up to the top foot it & cast off hands
%% round all six
%%endtext

%%sep 1 1 500
%%sep 1 1 500
